X: 6679
T: Celtic Prayer
R: slip jig
M: 9/8
K: Dmajor
M:7/8
F2A2 DEF|G2B2 AGF|d2A2 def|e2g2f3|gab2 afd|efg2 fdA|
Bcd2 Adg|f2e2d3:|:cd e2 Acg|fga2 fdA|Bcd ef af|g2f2e3|
gab2 gfe|fga2 fdA|Bcd ef af|g2e2d3:|

